rospo-newyear-dark/symbolic/emotes/face-angel-symbolic.svg

<svg height="16" width="16" xmlns="http://www.w3.org/2000/svg"><path d="m2.09 4.25c-.69 1.08-1.09 2.36-1.09 3.75 0 3.86 3.13 7 7 7s7-3.14 7-7c0-1.39-.4-2.67-1.09-3.75-.31.1-.62.2-.97.28-1.34.3-3.05.47-4.94.47s-3.6-.17-4.94-.47c-.35-.08-.66-.18-.97-.28zm2.91 1.75c.55 0 1 .45 1 1s-.45 1-1 1-1-.45-1-1 .45-1 1-1zm6 0c .55 0 1 .45 1 1s-.45 1-1 1-1-.45-1-1 .45-1 1-1zm-5.83 4.83c.75.75 1.77 1.17 2.83 1.17s2.08-.42 2.83-1.17l.7.7c-.93.94-2.2 1.47-3.53 1.47s-2.6-.53-3.53-1.47z" fill="#d3dae3"/><path d="m8 0c-1.83 0-3.48.16-4.71.45-.62.14-1.12.3-1.52.51-.2.11-.37.23-.51.39s-.26.39-.26.64v.02c0 .25.12.47.26.63s.31.28.51.39c.4.21.9.38 1.52.52 1.23.28 2.88.45 4.71.45s3.48-.17 4.71-.45c.62-.14 1.13-.31 1.52-.52.2-.11.37-.23.51-.39s.26-.38.26-.63v-.02c0-.25-.12-.48-.26-.64s-.31-.28-.51-.39c-.39-.21-.9-.37-1.52-.51-1.23-.29-2.88-.45-4.71-.45zm0 1c1.77 0 3.37.16 4.49.42.56.13 1 .28 1.26.42.12.07.18.12.21.16-.03.03-.09.09-.21.15-.26.14-.7.3-1.26.42-1.12.26-2.72.43-4.49.43s-3.37-.17-4.49-.43c-.56-.12-1-.28-1.26-.42-.12-.06-.18-.12-.21-.15.03-.04.09-.09.21-.16.26-.14.7-.29 1.26-.42 1.12-.26 2.72-.42 4.49-.42zm-6 .99v.01.01zm12 0v .02c0-.02 0-.01 0-.01 0-.01 0 0 0-.01z" fill="#d3dae3"/></svg>

<svg xmlns="http://www.w3.org/2000/svg" width="16" height="16" version="1.1">
 <path style="fill:#d3dae3" d="M 2.09,4.25 C 1.4,5.33 1,6.61 1,8 1,11.86 4.13,15 8,15 11.87,15 15,11.86 15,8 15,6.61 14.6,5.33 13.91,4.25 13.6,4.35 13.29,4.45 12.94,4.53 11.6,4.83 9.89,5 8,5 6.11,5 4.4,4.83 3.06,4.53 2.71,4.45 2.4,4.35 2.09,4.25 Z M 5,6 C 5.55,6 6,6.45 6,7 6,7.55 5.55,8 5,8 4.45,8 4,7.55 4,7 4,6.45 4.45,6 5,6 Z M 11,6 C 11.55,6 12,6.45 12,7 12,7.55 11.55,8 11,8 10.45,8 10,7.55 10,7 10,6.45 10.45,6 11,6 Z M 5.17,10.83 C 5.92,11.58 6.94,12 8,12 9.06,12 10.08,11.58 10.83,10.83 L 11.53,11.53 C 10.6,12.47 9.33,13 8,13 6.67,13 5.4,12.47 4.47,11.53 Z"/>
 <path style="fill:#d3dae3" d="M 8,0 C 6.17,0 4.52,0.16 3.29,0.45 2.67,0.59 2.17,0.75 1.77,0.96 1.57,1.07 1.4,1.19 1.26,1.35 1.12,1.51 1,1.74 1,1.99 V 2.01 C 1,2.26 1.12,2.48 1.26,2.64 1.4,2.8 1.57,2.92 1.77,3.03 2.17,3.24 2.67,3.41 3.29,3.55 4.52,3.83 6.17,4 8,4 9.83,4 11.48,3.83 12.71,3.55 13.33,3.41 13.84,3.24 14.23,3.03 14.43,2.92 14.6,2.8 14.74,2.64 14.88,2.48 15,2.26 15,2.01 V 1.99 C 15,1.74 14.88,1.51 14.74,1.35 14.6,1.19 14.43,1.07 14.23,0.96 13.84,0.75 13.33,0.59 12.71,0.45 11.48,0.16 9.83,0 8,0 Z M 8,1 C 9.77,1 11.37,1.16 12.49,1.42 13.05,1.55 13.49,1.7 13.75,1.84 13.87,1.91 13.93,1.96 13.96,2 13.93,2.03 13.87,2.09 13.75,2.15 13.49,2.29 13.05,2.45 12.49,2.57 11.37,2.83 9.77,3 8,3 6.23,3 4.63,2.83 3.51,2.57 2.95,2.45 2.51,2.29 2.25,2.15 2.13,2.09 2.07,2.03 2.04,2 2.07,1.96 2.13,1.91 2.25,1.84 2.51,1.7 2.95,1.55 3.51,1.42 4.63,1.16 6.23,1 8,1 Z M 2,1.99 C 2,2 2,1.99 2,2 2,2 2,1.99 2,2.01 Z M 14,1.99 V 2.01 C 14,1.99 14,2 14,2 14,1.99 14,2 14,1.99 Z"/>
</svg>
